svg/u1f68a.svg

<svg viewBox="0 0 128 128" xmlns="http://www.w3.org/2000/svg">
  <polygon points="98.3,98.27 29.7,98.27 4,124 124,124 " fill="#BDBDBD"/>
  <g>
    <g>
      <polygon points="33.31,123.98 28.31,124 43.97,100.63 46.62,102.65 " fill="#E0E0E0"/>
      <polygon points="36.94,124 31.86,124 47.05,101.16 49.69,103.18 " fill="#616161"/>
    </g>
    <g>
      <polygon points="94.69,123.98 99.69,124 84.03,100.63 81.38,102.65 " fill="#E0E0E0"/>
      <polygon points="91.06,124 96.14,124 80.95,101.16 78.31,103.18 " fill="#616161"/>
    </g>
  </g>
  <g>
    <path d="M33.65,100.95c0,0-6.87,5.3-5.82,8.83c1.05,3.52,14.25,8.21,33.3,8.21 c23.78,0,38.06-4.98,39.65-8.89c1.59-3.91-6.97-9.39-6.97-9.39L33.65,100.95z" opacity="0.4" fill="#212121"/>
    <path d="M41.49,100.78l0.63,4.46c0,0,9.86,0.78,22.19,0.78S86.04,105,86.04,105v-5.09L41.49,100.78z" fill="#455A64"/>
    <polygon points="48.53,93.3 80.07,93.3 76.63,108.26 51.41,108.26 " fill="#455A64"/>
    <path d="M40.74,93.85v-0.05c0,0-4.74-0.08-5.1,0.87s-1.17,7.92,0.18,14.2c0.15,0.69,0.54,1.41,1.21,1.41h1.8 c0.67,0,1.35-0.35,2.45,1.95c0.94,1.97,2.77,1.63,2.77,0.63s0-19.01,0-19.01H40.74z" fill="#455A64"/>
    <path d="M87.68,93.85v-0.05c0,0,4.74-0.08,5.1,0.87s1.17,7.92-0.18,14.2c-0.15,0.69-0.54,1.41-1.21,1.41 h-1.8c-0.67,0-1.35-0.35-2.45,1.95c-0.94,1.97-2.77,1.63-2.77,0.63s0-19.01,0-19.01H87.68z" fill="#455A64"/>
    <path d="M100.89,88.18V41.09c0-2.73-2.21-4.94-4.94-4.94H32.09c-2.73,0-4.94,2.21-4.94,4.94v47.09l-2.6,6.59 c0,0,7.86,6.01,39.35,6.01s39.59-6.01,39.59-6.01L100.89,88.18z" fill="#FFCA28"/>
    <path d="M73.69,17.08H55.1c-0.92,0-1.67-0.75-1.67-1.67v0c0-0.92,0.75-1.67,1.67-1.67h18.59 c0.92,0,1.67,0.75,1.67,1.67v0C75.35,16.34,74.61,17.08,73.69,17.08z" fill="#82AEC0"/>
    <line fill="none" stroke="#82AEC0" stroke-width="3" stroke-miterlimit="10" x1="57.71" x2="55.69" y1="20.66" y2="6.12"/>
    <line fill="none" stroke="#82AEC0" stroke-width="3" stroke-miterlimit="10" x1="70.88" x2="72.55" y1="20.5" y2="5.74"/>
    <path d="M73.41,21.35" fill="none" stroke="#82AEC0" stroke-width="2" stroke-miterlimit="10"/>
    <path d="M78.26,9.64c-0.31,0.26-0.74,0.25-1.04-0.01c-0.85-0.74-2.47-1.74-3.34-2.02 c-0.47-0.15-2.5-0.66-8.94-0.66c-5.86,0-9.87,0.33-10.8,0.65c-0.87,0.3-2.31,1.43-3.08,2.24c-0.3,0.32-0.76,0.38-1.13,0.16v0 c-0.48-0.28-0.65-0.93-0.36-1.42c0.75-1.28,2.18-3.48,3.7-4.01c2.18-0.76,10.1-0.8,11.66-0.8c3.36,0,7.78,0.14,9.76,0.79 c1.56,0.51,3.04,2.78,3.74,3.93C78.67,8.86,78.59,9.36,78.26,9.64L78.26,9.64z" fill="#82AEC0"/>
    <polygon points="27.15,31.2 27.15,56.18 100.89,56.18 100.89,31.76 65.58,24.55 " fill="#EEEEEE"/>
    <path d="M24.51,31.2l2.64,2.58c0,0,13.33-4.42,36.74-4.42s36.99,4.15,36.99,4.15l2.6-2.64 c-1.45-6.29-7.26-11.22-24.39-11.22s-18.78,0-32.58,0S25.95,26.08,24.51,31.2z" fill="#9E9E9E"/>
    <path d="M24.51,31.2c0,0,16.09-5.38,39.38-5.38s39.59,5.06,39.59,5.06c-1.45-6.29-7.29-13.21-24.39-14.36 c-16.44-1.11-18.3-1.11-32.58,0C32.77,17.59,25.97,24.91,24.51,31.2z" fill="#BDBDBD"/>
    <path d="M103.49,100.78c0,0-8.97,3-39.59,3s-39.35-3-39.35-3v-6.01c0,0,18.83,3,39.56,3s39.38-3,39.38-3 V100.78z" fill="#82AEC0"/>
    <circle cx="81.32" cy="84.09" r="4.96" fill="#FFFDE7"/>
    <circle cx="46.68" cy="84.09" r="4.96" fill="#FFFDE7"/>
    <path d="M58.99,20h10.06c2.4,0,4.34,1.94,4.34,4.34v2.97c0,2.4-1.94,4.34-4.34,4.34H58.99 c-2.4,0-4.34-1.94-4.34-4.34v-2.97C54.65,21.94,56.59,20,58.99,20z" fill="#37474F"/>
    <path d="M61.71,22.27h4.59c2.08,0,3.77,1.59,3.77,3.54s-1.69,3.54-3.77,3.54h-4.59 c-2.08,0-3.77-1.49-3.77-3.54S59.63,22.27,61.71,22.27z" fill="#FFCA28"/>
    <path d="M38.55,39.63c17.75-3.3,33.22-3.29,50.9,0c0,10.1,0,20.2,0,30.3c-17.69,3.29-33.15,3.3-50.9,0 C38.55,59.83,38.55,49.73,38.55,39.63z" fill="#BAE2FD"/>
    <path d="M64,73.84c-6.21,0-17.92-0.7-23.62-1.11c-1.86-0.13-3.29-1.68-3.29-3.54V41.21 c0-1.69,1.19-3.15,2.85-3.48c3.62-0.71,10.96-1.71,23.57-1.71c12.87,0,20.68,1.04,24.51,1.75c1.68,0.31,2.89,1.78,2.89,3.49V69.2 c0,1.86-1.43,3.4-3.29,3.54C81.92,73.15,70.21,73.84,64,73.84z M42.27,68.27c14.58,1.3,28.59,1.18,43.42-0.03 c1.32-0.11,2.31-1.29,2.31-2.62v-21.7c0-1.28-0.93-2.39-2.2-2.6c-15.1-2.49-28.5-2.49-43.6,0c-1.27,0.21-2.2,1.32-2.2,2.6v21.73 C40,66.97,40.96,68.16,42.27,68.27z" fill="#37474F"/>
    <path d="M62.17,39.46v0.02c0.71-0.01,1.41-0.02,2.11-0.02H62.17z" fill="#6FBFF0"/>
    <path d="M65.17,39.46h-0.89C64.58,39.46,64.87,39.47,65.17,39.46L65.17,39.46z" fill="#6FBFF0"/>
    <path d="M88,43.93c0-1.29-0.93-2.39-2.2-2.6c-7.24-1.19-14.08-1.81-20.91-1.86l0,0 c-0.3,0-0.59-0.01-0.89-0.01c-0.7,0-1.41,0.01-2.11,0.02l0,0C55.46,39.59,49,40.21,42.2,41.33c-1.27,0.21-2.2,1.32-2.2,2.6v3.71 c2.3-0.67,10.59-2.39,22.37-2.55L62.36,69.2c1,0.01,2,0.01,3,0l0.02-24.11c12.18,0.12,20.36,1.38,22.62,1.83V43.93z" opacity="0.66" fill="#82AEC0"/>
    <path d="M55.53,58.85c-1.31-0.31-2.87-0.12-2.87-0.12c-0.96,0-2.36,0.73-2.98,1.55 c-0.42,0.54-1.25,0.59-1.69,0.06c-0.71-0.85-1.75-1.47-2.74-1.47c0,0-2.49-0.49-4.12,0.41c-0.41,0.23-0.79,0.4-1.12,0.56v5.82 c0,1.32,1.08,2.51,2.39,2.63c5.92,0.52,11.36,0.79,17.19,0.86c-0.01-1.44-0.07-4.7-0.53-6.71C58.47,59.82,56.84,59.16,55.53,58.85z " opacity="0.66" fill="#82AEC0"/>
    <path d="M85.93,58.87c-0.21-0.05-0.44-0.09-0.67-0.12c-0.01-0.06-0.03-0.12-0.03-0.2 c-0.04-1.14,0.42-1.26,0.61-2.07c0.09-0.39,0.21-0.78,0.21-1.19c0-1.68-1.18-3.05-2.63-3.05c-0.54,0-1.08,0.18-1.49,0.54 c-1.51,1.33-1.14,3.13-0.94,3.7c0.26,0.72,0.96,1.65,1.06,2.44c-0.76,0.24-1.73,0.78-2.45,1.49c-0.55,0.55-1.45,0.52-1.96-0.06 c-0.76-0.88-1.11-1.15-2.39-1.48c0,0-1.14-0.28-2.56-0.14c-1.42,0.14-3.67,1.19-4.3,3.26c-0.42,1.38-0.57,5.77-0.61,7.16 c5.86-0.11,11.76-0.4,17.8-0.89c1.33-0.11,2.42-1.3,2.42-2.63v-5.78C87.42,59.37,86.68,59.03,85.93,58.87z" opacity="0.66" fill="#82AEC0"/>
  </g>
</svg>

<svg viewBox="0 0 128 128" xmlns="http://www.w3.org/2000/svg">
  <defs/>
  <path d="M98.3,98.27 L29.7,98.27 L4,124 L124,124 Z" fill="#BDBDBD"/>
  <path d="M33.31,123.98 L28.31,124 L43.97,100.63 L46.62,102.65 Z" fill="#E0E0E0"/>
  <path d="M36.94,124 L31.86,124 L47.05,101.16 L49.69,103.18 Z" fill="#616161"/>
  <path d="M94.69,123.98 L99.69,124 L84.03,100.63 L81.38,102.65 Z" fill="#E0E0E0"/>
  <path d="M91.06,124 L96.14,124 L80.95,101.16 L78.31,103.18 Z" fill="#616161"/>
  <path d="M33.65,100.95 C33.65,100.95 26.78,106.25 27.83,109.78 C28.88,113.3 42.08,117.99 61.13,117.99 C84.91,117.99 99.19,113.01 100.78,109.1 C102.37,105.19 93.81,99.71 93.81,99.71 L33.65,100.95 Z" fill="#212121" opacity="0.4"/>
  <path d="M41.49,100.78 L42.12,105.24 C42.12,105.24 51.98,106.02 64.31,106.02 C76.64,106.02 86.04,105 86.04,105 L86.04,99.91 L41.49,100.78 Z" fill="#455A64"/>
  <path d="M48.53,93.3 L80.07,93.3 L76.63,108.26 L51.41,108.26 Z" fill="#455A64"/>
  <path d="M40.74,93.85 L40.74,93.8 C40.74,93.8 36,93.72 35.64,94.67 C35.28,95.62 34.47,102.59 35.82,108.87 C35.97,109.56 36.36,110.28 37.03,110.28 L38.83,110.28 C39.5,110.28 40.18,109.93 41.28,112.23 C42.22,114.2 44.05,113.86 44.05,112.86 C44.05,111.86 44.05,93.85 44.05,93.85 L40.74,93.85 Z" fill="#455A64"/>
  <path d="M87.68,93.85 L87.68,93.8 C87.68,93.8 92.42,93.72 92.78,94.67 C93.14,95.62 93.95,102.59 92.6,108.87 C92.45,109.56 92.06,110.28 91.39,110.28 L89.59,110.28 C88.92,110.28 88.24,109.93 87.14,112.23 C86.2,114.2 84.37,113.86 84.37,112.86 C84.37,111.86 84.37,93.85 84.37,93.85 L87.68,93.85 Z" fill="#455A64"/>
  <path d="M100.89,88.18 L100.89,41.09 C100.89,38.36 98.68,36.15 95.95,36.15 L32.09,36.15 C29.36,36.15 27.15,38.36 27.15,41.09 L27.15,88.18 L24.55,94.77 C24.55,94.77 32.41,100.78 63.9,100.78 C95.39,100.78 103.49,94.77 103.49,94.77 L100.89,88.18 Z" fill="#FFCA28"/>
  <path d="M73.69,17.08 L55.1,17.08 C54.18,17.08 53.43,16.33 53.43,15.41 L53.43,15.41 C53.43,14.49 54.18,13.74 55.1,13.74 L73.69,13.74 C74.61,13.74 75.36,14.49 75.36,15.41 L75.36,15.41 C75.35,16.34 74.61,17.08 73.69,17.08 Z" fill="#82AEC0"/>
  <path d="M56.224,20.866 L54.204,6.326 L57.176,5.914 L59.196,20.454 L56.224,20.866 Z" fill="#82AEC0"/>
  <path d="M69.39,20.331 L71.06,5.571 L74.04,5.909 L72.37,20.669 L69.39,20.331 Z" fill="#82AEC0"/>
  <path d="M78.26,9.64 C77.95,9.9 77.52,9.89 77.22,9.63 C76.37,8.89 74.75,7.89 73.88,7.61 C73.41,7.46 71.38,6.95 64.94,6.95 C59.08,6.95 55.07,7.28 54.14,7.6 C53.27,7.9 51.83,9.03 51.06,9.84 C50.76,10.16 50.3,10.22 49.93,10 L49.93,10 C49.45,9.72 49.28,9.07 49.57,8.58 C50.32,7.3 51.75,5.1 53.27,4.57 C55.45,3.81 63.37,3.77 64.93,3.77 C68.29,3.77 72.71,3.91 74.69,4.56 C76.25,5.07 77.73,7.34 78.43,8.49 C78.67,8.86 78.59,9.36 78.26,9.64 L78.26,9.64 Z" fill="#82AEC0"/>
  <path d="M27.15,31.2 L27.15,56.18 L100.89,56.18 L100.89,31.76 L65.58,24.55 Z" fill="#EEEEEE"/>
  <path d="M24.51,31.2 L27.15,33.78 C27.15,33.78 40.48,29.36 63.89,29.36 C87.3,29.36 100.88,33.51 100.88,33.51 L103.48,30.87 C102.03,24.58 96.22,19.65 79.09,19.65 C61.96,19.65 60.31,19.65 46.51,19.65 C32.71,19.65 25.95,26.08 24.51,31.2 Z" fill="#9E9E9E"/>
  <path d="M24.51,31.2 C24.51,31.2 40.6,25.82 63.89,25.82 C87.18,25.82 103.48,30.88 103.48,30.88 C102.03,24.59 96.19,17.67 79.09,16.52 C62.65,15.41 60.79,15.41 46.51,16.52 C32.77,17.59 25.97,24.91 24.51,31.2 Z" fill="#BDBDBD"/>
  <path d="M103.49,100.78 C103.49,100.78 94.52,103.78 63.9,103.78 C33.28,103.78 24.55,100.78 24.55,100.78 L24.55,94.77 C24.55,94.77 43.38,97.77 64.11,97.77 C84.84,97.77 103.49,94.77 103.49,94.77 L103.49,100.78 Z" fill="#82AEC0"/>
  <path d="M86.28,84.09 A4.96 4.96 0 1 1 76.36,84.09 A4.96 4.96 0 1 1 86.28,84.09 Z" fill="#FFFDE7"/>
  <path d="M51.64,84.09 A4.96 4.96 0 1 1 41.72,84.09 A4.96 4.96 0 1 1 51.64,84.09 Z" fill="#FFFDE7"/>
  <path d="M58.99,20 L69.05,20 C71.45,20 73.39,21.94 73.39,24.34 L73.39,27.31 C73.39,29.71 71.45,31.65 69.05,31.65 L58.99,31.65 C56.59,31.65 54.65,29.71 54.65,27.31 L54.65,24.34 C54.65,21.94 56.59,20 58.99,20 Z" fill="#37474F"/>
  <path d="M61.71,22.27 L66.3,22.27 C68.38,22.27 70.07,23.86 70.07,25.81 C70.07,27.76 68.38,29.35 66.3,29.35 L61.71,29.35 C59.63,29.35 57.94,27.86 57.94,25.81 C57.94,23.76 59.63,22.27 61.71,22.27 Z" fill="#FFCA28"/>
  <path d="M38.55,39.63 C56.3,36.33 71.77,36.34 89.45,39.63 C89.45,49.73 89.45,59.83 89.45,69.93 C71.76,73.22 56.3,73.23 38.55,69.93 C38.55,59.83 38.55,49.73 38.55,39.63 Z" fill="#BAE2FD"/>
  <path d="M64,73.84 C57.79,73.84 46.08,73.14 40.38,72.73 C38.52,72.6 37.09,71.05 37.09,69.19 L37.09,41.21 C37.09,39.52 38.28,38.06 39.94,37.73 C43.56,37.02 50.9,36.02 63.51,36.02 C76.38,36.02 84.19,37.06 88.02,37.77 C89.7,38.08 90.91,39.55 90.91,41.26 L90.91,69.2 C90.91,71.06 89.48,72.6 87.62,72.74 C81.92,73.15 70.21,73.84 64,73.84 Z M42.27,68.27 C56.85,69.57 70.86,69.45 85.69,68.24 C87.01,68.13 88,66.95 88,65.62 L88,43.92 C88,42.64 87.07,41.53 85.8,41.32 C70.7,38.83 57.3,38.83 42.2,41.32 C40.93,41.53 40,42.64 40,43.92 L40,65.65 C40,66.97 40.96,68.16 42.27,68.27 Z" fill="#37474F"/>
  <path d="M62.17,39.46 L62.17,39.48 C62.88,39.47 63.58,39.46 64.28,39.46 L62.17,39.46 Z" fill="#6FBFF0"/>
  <path d="M65.17,39.46 L64.28,39.46 C64.58,39.46 64.87,39.47 65.17,39.46 L65.17,39.46 Z" fill="#6FBFF0"/>
  <path d="M88,43.93 C88,42.64 87.07,41.54 85.8,41.33 C78.56,40.14 71.72,39.52 64.89,39.47 L64.89,39.47 C64.59,39.47 64.3,39.46 64,39.46 C63.3,39.46 62.59,39.47 61.89,39.48 L61.89,39.48 C55.46,39.59 49,40.21 42.2,41.33 C40.93,41.54 40,42.65 40,43.93 L40,47.64 C42.3,46.97 50.59,45.25 62.37,45.09 L62.36,69.2 C63.36,69.21 64.36,69.21 65.36,69.2 L65.38,45.09 C77.56,45.21 85.74,46.47 88,46.92 L88,43.93 Z" fill="#82AEC0" opacity="0.66"/>
  <path d="M55.53,58.85 C54.22,58.54 52.66,58.73 52.66,58.73 C51.7,58.73 50.3,59.46 49.68,60.28 C49.26,60.82 48.43,60.87 47.99,60.34 C47.28,59.49 46.24,58.87 45.25,58.87 C45.25,58.87 42.76,58.38 41.13,59.28 C40.72,59.51 40.34,59.68 40.01,59.84 L40.01,65.66 C40.01,66.98 41.09,68.17 42.4,68.29 C48.32,68.81 53.76,69.08 59.59,69.15 C59.58,67.71 59.52,64.45 59.06,62.44 C58.47,59.82 56.84,59.16 55.53,58.85 Z" fill="#82AEC0" opacity="0.66"/>
  <path d="M85.93,58.87 C85.72,58.82 85.49,58.78 85.26,58.75 C85.25,58.69 85.23,58.63 85.23,58.55 C85.19,57.41 85.65,57.29 85.84,56.48 C85.93,56.09 86.05,55.7 86.05,55.29 C86.05,53.61 84.87,52.24 83.42,52.24 C82.88,52.24 82.34,52.42 81.93,52.78 C80.42,54.11 80.79,55.91 80.99,56.48 C81.25,57.2 81.95,58.13 82.05,58.92 C81.29,59.16 80.32,59.7 79.6,60.41 C79.05,60.96 78.15,60.93 77.64,60.35 C76.88,59.47 76.53,59.2 75.25,58.87 C75.25,58.87 74.11,58.59 72.69,58.73 C71.27,58.87 69.02,59.92 68.39,61.99 C67.97,63.37 67.82,67.76 67.78,69.15 C73.64,69.04 79.54,68.75 85.58,68.26 C86.91,68.15 88,66.96 88,65.63 L88,59.85 C87.42,59.37 86.68,59.03 85.93,58.87 Z" fill="#82AEC0" opacity="0.66"/>
</svg>
